X: 23434
T: Leslie's March
R: jig
M: 6/8
K: Dmajor
c|:d3 ded|dcB ABc|dcB AGF|G2F E2d|
~e3 e2e|fed eag|f2e d2A|1 def e2c:|2 def e2d||
|:fed eAA|fed eAA|gfe fBB|gfe fBB|
fed eAA|fed eag|f2e d2A|1 def e2d:|2 def e2c||
|:dfa dfa|dfa afd|egb egb|egb bge|
dfa dfa|dfa a2g|f2e d2A|def e2c:|

